X:686
T: "Heimweg von der Lese"
N: Z1367
O: Europa, Mitteleuropa, Deutschland, Rhein
R: Kinder - Lied
M: 6/8
L: 1/16
K: F
A2 | F6C4A2 | F6C4
A2 | G4G2E4E2 | F4G2A4
A2 | F6C4A2 | F6C4
A2 | G4G2E4E2 | F4z6
F2 | G4G2E4C2 | F4G2A4
F2 | G3GG2E4C2 | F4G2A4
A2 | F6C4A2 | F6C4
A2 | G4G2E4C2 | F4z6

